src/16/mimetypes/image-x-ico.svg

<svg width="16" xmlns="http://www.w3.org/2000/svg" height="16" viewBox="0 0 16 16">
 <path fill="#22a7f0" d="m2 2v12h12v-12zm1 1h10v8h-10zm2 1v2h2v-2zm4 0v2h2v-2zm-4 4v2h2v-2zm4 0v2h2v-2zm-6 4h10v1h-10z"/>
</svg>

<svg width="16" xmlns="http://www.w3.org/2000/svg" height="16"><path fill="#22a7f0" d="M2 2v12h12V2zm1 1h10v8H3zm2 1v2h2V4zm4 0v2h2V4zM5 8v2h2V8zm4 0v2h2V8zm-6 4h10v1H3z"/></svg>
